X:2
T:Venosc
O:France
A:Massif Central
R:Bourre  2 temps
Q:200
M:2/4
L:1/4
C:Trad.
K:G
F>E DE|F2 DA|A>B cd|c>B AG|F>E DE|F2 DA|A>B cd|A4:|
dB BA|cA AG| B>A GF|G/2F/2G/2A/2 B/2A/2B/2c/2|dB BA|cA AG|B>A
GF|G4:||
